img/socials/vk.svg

<svg width="30" height="30" viewBox="0 0 30 30" fill="none" xmlns="http://www.w3.org/2000/svg">
<path d="M25.2377 10.4144C25.3757 9.94553 25.2377 9.6001 24.5691 9.6001H22.3611C21.7988 9.6001 21.54 9.89667 21.4011 10.2258C21.4011 10.2258 20.2757 12.9678 18.6857 14.7455C18.1723 15.2598 17.9357 15.4244 17.6545 15.4244C17.5157 15.4244 17.3031 15.259 17.3031 14.7901V10.4144C17.3031 9.85124 17.1445 9.6001 16.68 9.6001H13.2077C12.8545 9.6001 12.6445 9.86238 12.6445 10.1058C12.6445 10.639 13.44 10.7624 13.5223 12.2624V15.5178C13.5223 16.2301 13.3945 16.3612 13.1134 16.3612C12.3634 16.3612 10.5411 13.6098 9.46111 10.459C9.24339 9.84781 9.02997 9.6001 8.46339 9.6001H6.25454C5.62454 9.6001 5.49768 9.89667 5.49768 10.2258C5.49768 10.8112 6.24768 13.7178 8.98882 17.5578C10.8145 20.179 13.3877 21.6001 15.7277 21.6001C17.1334 21.6001 17.3057 21.2855 17.3057 20.7412C17.3057 18.2367 17.1788 18.0001 17.8834 18.0001C18.2091 18.0001 18.7723 18.1655 20.0845 19.429C21.5845 20.929 21.8331 21.6001 22.6731 21.6001H24.8811C25.5111 21.6001 25.83 21.2855 25.6465 20.6624C25.2265 19.3544 22.3877 16.6612 22.26 16.4812C21.9343 16.0612 22.0277 15.8744 22.26 15.499C22.2634 15.4955 24.96 11.7001 25.2377 10.4144Z" fill="#FCFCFC"/>
</svg>

<svg width="30" height="30" viewBox="0 0 30 30" fill="none" xmlns="http://www.w3.org/2000/svg"><path d="M25.238 10.414c.138-.468 0-.814-.669-.814h-2.208c-.562 0-.821.297-.96.626 0 0-1.125 2.742-2.715 4.52-.514.514-.75.678-1.032.678-.138 0-.35-.165-.35-.634v-4.376c0-.563-.16-.814-.624-.814h-3.472c-.354 0-.563.262-.563.506 0 .533.795.656.877 2.156v3.256c0 .712-.127.843-.409.843-.75 0-2.572-2.751-3.652-5.902-.218-.611-.431-.859-.998-.859H6.255c-.63 0-.757.297-.757.626 0 .585.75 3.492 3.49 7.332 1.827 2.621 4.4 4.042 6.74 4.042 1.405 0 1.578-.315 1.578-.859 0-2.504-.127-2.74.577-2.74.326 0 .89.165 2.201 1.428 1.5 1.5 1.75 2.171 2.59 2.171h2.207c.63 0 .949-.315.765-.938-.42-1.308-3.258-4-3.386-4.18-.326-.42-.232-.608 0-.983.003-.004 2.7-3.799 2.978-5.085z" fill="#FCFCFC"/></svg>
